Simply-Black-Circles/scalable/apps/orca.svg

<svg xmlns="http://www.w3.org/2000/svg" width="48" height="48" viewBox="0 0 12.7 12.7"><path fill="#1a1a1a" d="M6.344.073a6.29 6.29 0 0 0-6.29 6.29 6.29 6.29 0 0 0 6.29 6.288 6.29 6.29 0 0 0 6.29-6.289 6.29 6.29 0 0 0-6.29-6.29zm-.018.936a5.407 5.407 0 0 1 5.407 5.407 5.407 5.407 0 0 1-5.407 5.407A5.407 5.407 0 0 1 .92 6.416 5.407 5.407 0 0 1 6.326 1.01zm2.91 1.236c-.69-.008-1.377.208-2.05.572-.35.19-.66.463-.878.565-1.977-.392-4.156 1.24-4.376 4.103-.018.23-.014.787.1.858 1.122.338 2.698-.035 3.618-.423.256.082.589.142 1.045.159.26-.068.171-.302-.05-.574 1.13-.275 1.641.574 1.826.7.337.288-.694 1.077-.629 1.72.037.356.182.53.182.53.284-.805 1.183-.474 1.132-1.312.682.385.828-.228 1.62-.106-.112-.17-.257-.424-.567-.557-.331-.124-.89-.107-1.036-.53-.026-.477-.019-3.024-1.171-3.803-.169-.34.012-.823.34-1.153.297-.299.742-.574.894-.75zm-5.27 4.018a.151.151 0 0 1 .048.016c.14.203-.45.954-.74.716-.124-.175.434-.768.692-.732zm3.85.017c.246.009.447.054.49.163.098.252-1.763.258-.296.947.365.234.365.59.331.544-.265-.254-.766-.789-1.776-.525a5.654 5.654 0 0 0-.64-.594c.204-.143.452-.3.808-.422.136-.047.672-.129 1.083-.113zm-3.509.895c.144.004.297.022.458.03.128.2.268.457.693.644-.77.31-1.764.609-2.745.502-.126-.013.012.154.818-.852.23-.288.487-.333.776-.324z"/></svg>

<?xml version="1.0" encoding="UTF-8" standalone="no"?>
<svg
   xmlns:dc="http://purl.org/dc/elements/1.1/"
   xmlns:cc="http://creativecommons.org/ns#"
   xmlns:rdf="http://www.w3.org/1999/02/22-rdf-syntax-ns#"
   xmlns:svg="http://www.w3.org/2000/svg"
   xmlns="http://www.w3.org/2000/svg"
   xmlns:sodipodi="http://sodipodi.sourceforge.net/DTD/sodipodi-0.dtd"
   xmlns:inkscape="http://www.inkscape.org/namespaces/inkscape"
   width="48"
   height="48"
   viewBox="0 0 12.7 12.7"
   version="1.1"
   id="svg4"
   sodipodi:docname="orca.svg"
   inkscape:version="0.92.4 (5da689c313, 2019-01-14)">
  <metadata
     id="metadata10">
    <rdf:RDF>
      <cc:Work
         rdf:about="">
        <dc:format>image/svg+xml</dc:format>
        <dc:type
           rdf:resource="http://purl.org/dc/dcmitype/StillImage" />
        <dc:title></dc:title>
      </cc:Work>
    </rdf:RDF>
  </metadata>
  <defs
     id="defs8" />
  <sodipodi:namedview
     pagecolor="#ffffff"
     bordercolor="#666666"
     borderopacity="1"
     objecttolerance="10"
     gridtolerance="10"
     guidetolerance="10"
     inkscape:pageopacity="0"
     inkscape:pageshadow="2"
     inkscape:window-width="1087"
     inkscape:window-height="480"
     id="namedview6"
     showgrid="false"
     inkscape:zoom="4.9166667"
     inkscape:cx="2.1355932"
     inkscape:cy="24"
     inkscape:window-x="0"
     inkscape:window-y="25"
     inkscape:window-maximized="0"
     inkscape:current-layer="svg4" />
  <path
     d="m 6.344,0.073 a 6.29,6.29 0 0 0 -6.29,6.29 6.29,6.29 0 0 0 6.29,6.288 6.29,6.29 0 0 0 6.29,-6.289 6.29,6.29 0 0 0 -6.29,-6.29 z M 6.326,1.009 A 5.407,5.407 0 0 1 11.733,6.416 5.407,5.407 0 0 1 6.326,11.823 5.407,5.407 0 0 1 0.92,6.416 5.407,5.407 0 0 1 6.326,1.01 Z m 2.91,1.236 C 8.546,2.237 7.859,2.453 7.186,2.817 6.836,3.007 6.526,3.28 6.308,3.382 4.331,2.99 2.152,4.622 1.932,7.485 1.914,7.715 1.918,8.272 2.032,8.343 3.154,8.681 4.73,8.308 5.65,7.92 5.906,8.002 6.239,8.062 6.695,8.079 6.955,8.011 6.866,7.777 6.645,7.505 c 1.13,-0.275 1.641,0.574 1.826,0.7 0.337,0.288 -0.694,1.077 -0.629,1.72 0.037,0.356 0.182,0.53 0.182,0.53 C 8.308,9.65 9.207,9.981 9.156,9.143 9.838,9.528 9.984,8.915 10.776,9.037 10.664,8.867 10.519,8.613 10.209,8.48 9.878,8.356 9.319,8.373 9.173,7.95 9.147,7.473 9.154,4.926 8.002,4.147 7.833,3.807 8.014,3.324 8.342,2.994 8.639,2.695 9.084,2.42 9.236,2.244 Z M 3.966,6.263 A 0.151,0.151 0 0 1 4.014,6.279 C 4.154,6.482 3.564,7.233 3.274,6.995 3.15,6.82 3.708,6.227 3.966,6.263 Z M 7.816,6.28 C 8.062,6.289 8.263,6.334 8.306,6.443 8.404,6.695 6.543,6.701 8.01,7.39 8.375,7.624 8.375,7.98 8.341,7.934 8.076,7.68 7.575,7.145 6.565,7.409 A 5.654,5.654 0 0 0 5.925,6.815 C 6.129,6.672 6.377,6.515 6.733,6.393 6.869,6.346 7.405,6.264 7.816,6.28 Z M 4.307,7.175 c 0.144,0.004 0.297,0.022 0.458,0.03 0.128,0.2 0.268,0.457 0.693,0.644 C 4.688,8.159 3.694,8.458 2.713,8.351 2.587,8.338 2.725,8.505 3.531,7.499 3.761,7.211 4.018,7.166 4.307,7.175 Z"
     id="path2"
     inkscape:connector-curvature="0"
     style="fill:#1a1a1a" />
</svg>
